!!!SOCIAL_FUNCTION:	parade songs
!!!PDT:	1922
!!!OTL: No_86_Parade_Song_(d).krn
!!!REG: Southwest
!!!LANG: Non-Tone
!!!LING_GROUP: Uto-Aztecan
**kern
*staff1
*clefF4
*k[f#]
*M3/4
8d\
4d\
=1
2d\
4B\
=2
16A\LK
8.A\J
4A\
4e\
=3
2e\
4d\
=4!|:
*M2/4
4e\
12f#\L
12e\
12e\J
=5
[2d\
=6
4d\]
4B\
=7
4A\
16d\LK
8B\
16d\Jk
=8||
*M3/4
2d\
4B\
=9||
*M2/4
16A\LK
8.A\J
16d\LK
8.B\J
=10
16.B\LL
32A\JK
8G\J
4D\
=11
8B\L
8A\J
4A\
=12
8A\L
8A\J
4G\
=13
4A\
16A\LK
8.G\J
=14
16B\LK
8.A\J
(8.G\L
16D\Jk)
=15
4D\
8D\L
8D\J
=16
4.D\
8d\
=17||
*M3/4
12d\L
12B\
12B\J
12B\L
12A\
12A\J
4A\
=18
8A\L
8A\J
8A\L
8A\J
8.A\L
16e\Jk
=19
8.e\L
16e\Jk
8.e\L
16d\Jk
4d\
==:|!
*-
